icons/_assets/heading_3.svg

<svg width="100" height="100" xmlns="http://www.w3.org/2000/svg"><path d="M82.2643811,40.656 L67.4089225,43.19 L67.4089225,38.676 L91.8091399,34.551 L80.2282983,51.601 C87.5224407,50.331 93,53.853 93,61.153 C93,68.613 86.507379,75.071 78.9113004,76.456 C72.9599794,77.541 69.1629334,77.108 65.2943761,72.055 L69.9465769,68.908 C71.7562076,71.752 74.5252801,73.021 78.4901789,72.303 C82.8027015,71.523 87.6416261,67.712 87.6416261,62.481 C87.6416261,57.41 83.5823723,54.651 77.8892862,55.649 C75.1261729,56.134 72.0581437,57.744 70.2485131,59.621 L69.4618899,59.114 L82.2643811,40.656 Z M59.3857632,16 L59.3857632,78.062 L46.7868803,79.517 L46.7868803,57.245 L20.5968965,60.271 L20.5968965,82.545 L8,84 L8,21.938 L20.5968965,20.484 L20.5968965,48.863 L46.7868803,45.837 L46.7868803,17.456 L59.3857632,16 Z" fill="#134B45" fill-rule="evenodd"/></svg>

<svg width="100" height="100" xmlns="http://www.w3.org/2000/svg"><path d="M82.264 40.656 67.41 43.19v-4.514l24.4-4.125-11.58 17.05C87.521 50.331 93 53.853 93 61.153c0 7.46-6.493 13.918-14.089 15.303-5.951 1.085-9.748.652-13.617-4.401l4.653-3.147c1.81 2.844 4.578 4.113 8.543 3.395 4.313-.78 9.152-4.591 9.152-9.822 0-5.071-4.06-7.83-9.753-6.832-2.763.485-5.83 2.095-7.64 3.972l-.787-.507 12.802-18.458zM59.386 16v62.062l-12.6 1.455V57.245l-26.19 3.026v22.274L8 84V21.938l12.597-1.454v28.379l26.19-3.026V17.456L59.386 16z" fill="#134B45" fill-rule="evenodd"/></svg>
